X: 28529
T: Munster Lass, The
R: jig
M: 6/8
K: Dmajor
A|DFA dcd|edc d3|DFA dcB|AGF E2A|
DFA dcd|edc def|edc dcB|AGF E2:|
|:g|fed edc|dAF D2g|fed eGF|GFG E2g|
fed edc|dcB AGF|GBe FAd|cBc d2:|

